**kern	**silbe	**harmony	**phrase	**leadinstrument	**rhyme	**timestamp	**harte
*ICvox	*	*M4/4	*	*	*	*	*M4/4
*VRlead	*	*	*	*	*	*	*
*Hstimme	*	*	*	*	*	*	*
*D:	*	*D:	*	*	*	*	*D:
*M4/4	*	*	*	*	*	*	*
*clefC3	*	*	*	*	*	*	*
r;	.	1r;	.	r	.	0	N.C.
=1	=1	=1	=1	=1	=1	=1	=1
*>Letter>A	*>Letter>A	*>Letter>A	*>Letter>A	*>Letter>A	*>Letter>A	*>Letter>A	*>Letter>A
*>Label>Intro	*>Label>Intro	*>Label>Intro	*>Label>Intro	*>Label>Intro	*>Label>Intro	*>Label>Intro	*>Label>Intro
2r	.	1DMM	newline	voice	.	0.395	D:maj9
4r	.	.	.	.	.	.	.
8r	.	.	.	.	.	.	.
16a	Ba	.	.	.	.	.	.
16b-	ba	.	.	.	.	.	.
=2	=2	=2	=2	=2	=2	=2	=2
8cc	ba-	4.FM	.	voice	.	3.089	F:maj/2
8b-	-ya	.	.	.	.	.	.
8a	ba	.	.	.	.	.	.
[8g	bum	2Amm	.	voice	.	4.436	A:min7
8g]	_	.	.	.	.	.	.
4e	bum	.	.	.	.	.	.
[8f	ba	8CM	.	voice	.	.	C:sus4(b7,9,13)
=3	=3	=3	=3	=3	=3	=3	=3
4f]	_	1CM	.	voice	.	5.783	C:sus4(b7,9,13)
4r	.	.	.	.	.	.	.
4r	.	.	.	.	.	.	.
8r	.	.	.	.	.	.	.
24e	ba-	.	.	.	.	.	.
24f	-da-	.	.	.	.	.	.
24e	-ya	.	.	.	.	.	.
=4	=4	=4	=4	=4	=4	=4	=4
4.d	bum	4.Gmm	.	voice	.	8.477	G:min7
[8A	bum	2AM	.	voice	.	9.824	A:sus4(b7)
8A]	_	.	.	.	.	.	.
4a	wee	.	.	.	.	.	.
[8a	bah	8DMM	.	voice	.	.	D:maj9
=5	=5	=5	=5	=5	=5	=5	=5
4.a]	_	1DMM	newline	voice	.	11.171	D:maj9
8r	.	.	.	.	.	.	.
4r	.	.	.	.	.	.	.
8r	.	.	.	.	.	.	.
16a	_	.	.	.	.	.	.
16b-	_	.	.	.	.	.	.
=6	=6	=6	=6	=6	=6	=6	=6
8cc	Ba	4.FM	.	voice	.	13.792	F:maj/2
8b-	ba-	.	.	.	.	.	.
8a	-ya	.	.	.	.	.	.
[8g	ba	2Amm	.	voice	.	15.103	A:min7
8g]	bum	.	.	.	.	.	.
4e	_	.	.	.	.	.	.
[8f	_	8CM	.	voice	.	.	C:sus4(b7,9,13)
=7	=7	=7	=7	=7	=7	=7	=7
4f_	ba	1CM	.	voice	.	16.414	C:sus4(b7,9,13)
8.f]	_	.	.	.	.	.	.
16r	.	.	.	.	.	.	.
4r	.	.	.	.	.	.	.
4r	.	.	.	.	.	.	.
=8	=8	=8	=8	=8	=8	=8	=8
2r	.	4.Gmm	.	voice	.	19.036	G:min7
.	.	8%5AM	.	voice	.	20.347	A:sus4(b7)
8r	.	.	.	.	.	.	.
8d	When	.	.	.	.	.	.
8e	we	.	.	.	.	.	.
8eq	_	.	.	.	.	.	.
8f#	met	.	.	.	.	.	.
=9	=9	=9	=9	=9	=9	=9	=9
*>Letter>B	*>Letter>B	*>Letter>B	*>Letter>B	*>Letter>B	*>Letter>B	*>Letter>B	*>Letter>B
*>Label>Verse	*>Label>Verse	*>Label>Verse	*>Label>Verse	*>Label>Verse	*>Label>Verse	*>Label>Verse	*>Label>Verse
8e	_	1DMM	newline	voice	.	21.658	D:maj7
8r	.	.	.	.	.	.	.
4r	.	.	.	.	.	.	.
8r	.	.	.	.	.	.	.
8a	Al	.	.	.	.	.	.
8g	_	.	.	.	.	.	.
8g	ways	.	.	.	.	.	.
=10	=10	=10	=10	=10	=10	=10	=10
8f#	_	1F#mm	.	voice	.	24.284	F#:min7
16g	knew	.	.	.	A	.	.
[16f#	_	.	.	.	.	.	.
4f#]	_	.	.	.	.	.	.
8r	.	.	.	.	.	.	.
8d	I	.	.	.	.	.	.
8e	would	.	.	.	.	.	.
8eq	_	.	.	.	.	.	.
[8f#	feel	.	.	.	.	.	.
=11	=11	=11	=11	=11	=11	=11	=11
4f#]	_	1GMM	.	voice	.	26.909	G:maj7
8g	that	.	.	.	.	.	.
[8e	ma	.	.	.	.	.	.
8e]	_	.	.	.	.	.	.
8d	gic	.	.	.	.	.	.
16~f	for	.	.	.	.	.	.
16d	_	.	.	.	.	.	.
[8e	you	.	.	.	A	.	.
=12	=12	=12	=12	=12	=12	=12	=12
4e]	_	1CM	.	voice	.	29.534	C:sus4(b7,9,13)
4r	.	.	.	.	.	.	.
8r	.	.	.	.	.	.	.
8d	On	.	.	.	.	.	.
8e	my	.	.	.	.	.	.
8eq	_	.	.	.	.	.	.
8f#	mind	.	.	.	.	.	.
=13	=13	=13	=13	=13	=13	=13	=13
8e	_	1DMM	newline	voice	.	32.16	D:maj7
8e	_	.	.	.	.	.	.
4r	.	.	.	.	.	.	.
8r	.	.	.	.	.	.	.
4a	con-	.	.	.	.	.	.
16g	-stant	.	.	.	.	.	.
16f#	_	.	.	.	.	.	.
=14	=14	=14	=14	=14	=14	=14	=14
16g	ly	1F#mm	.	voice	.	34.783	F#:min7
8.f#	_	.	.	.	.	.	.
4r	.	.	.	.	.	.	.
8r	.	.	.	.	.	.	.
8d	in	.	.	.	.	.	.
8e	my	.	.	.	.	.	.
[8f#	arms	.	.	.	.	.	.
=15	=15	=15	=15	=15	=15	=15	=15
4f#]	_	1GMM	.	voice	.	37.407	G:maj7
8g	is	.	.	.	.	.	.
[8e	where	.	.	.	.	.	.
8e]	_	.	.	.	.	.	.
8d	you	.	.	.	.	.	.
16~f	should	.	.	.	.	.	.
16d	_	.	.	.	.	.	.
8e	be	.	.	.	.	.	.
=16	=16	=16	=16	=16	=16	=16	=16
2r	.	1CM	.	voice	.	40.031	C:sus4(b7,9,13)
8r	.	.	.	.	.	.	.
8.d	Mmm.	.	.	.	.	.	.
16r	.	.	.	.	.	.	.
8r	.	.	.	.	.	.	.
=17	=17	=17	=17	=17	=17	=17	=17
*>Letter>C	*>Letter>C	*>Letter>C	*>Letter>C	*>Letter>C	*>Letter>C	*>Letter>C	*>Letter>C
*>Label>Prechorus	*>Label>Prechorus	*>Label>Prechorus	*>Label>Prechorus	*>Label>Prechorus	*>Label>Prechorus	*>Label>Prechorus	*>Label>Prechorus
4r	.	2C#m	newline	voice	.	42.655	C#:1(b3,b7,11,9)
8f#	I	.	.	.	.	.	.
8e	_	.	.	.	.	.	.
8e	love	2F#Mm	.	voice	.	43.97	F#:7
4d	you	.	.	.	.	.	.
[8e	here	.	.	.	.	.	.
=18	=18	=18	=18	=18	=18	=18	=18
8e]	_	2Bmm	.	voice	.	45.285	B:min7
8f#	by	.	.	.	.	.	.
8e	_	.	.	.	.	.	.
16e	me,	.	.	.	B	.	.
[16d	_	.	.	.	.	.	.
4d]	_	2EMm	.	voice	.	46.6	E:7
8dq	_	.	.	.	.	.	.
8e	ba-	.	.	.	.	.	.
8f#	-by	.	.	.	B	.	.
=19	=19	=19	=19	=19	=19	=19	=19
4r	.	2Am	.	voice	.	47.914	A:min
8f#	you	.	.	.	.	.	.
8e	_	.	.	.	.	.	.
8e	let	2DMm	.	voice	.	49.229	D:7
4d	my	.	.	.	.	.	.
[8a	love	.	.	.	.	.	.
=20	=20	=20	=20	=20	=20	=20	=20
8a]	_	2GMM	.	voice	.	50.544	G:maj7
8f#	fly	.	.	.	.	.	.
8e	_	.	.	.	.	.	.
16e	free	.	.	.	(B	.	.
[16d	_	.	.	.	.	.	.
8d]	_	2CMm	.	voice	.	51.859	C:13
16e	ly	.	.	.	B)	.	.
16f#	_	.	.	.	.	.	.
8e	_	.	.	.	.	.	.
8r	.	.	.	.	.	.	.
=21	=21	=21	=21	=21	=21	=21	=21
4r	.	2C#m	newline	voice	.	53.174	C#:1(b3,b7,11,9)
8f#	I	.	.	.	.	.	.
8e	_	.	.	.	.	.	.
8e	want	2F#Mm	.	voice	.	54.497	F#:7
4d	you	.	.	.	.	.	.
[8e	in	.	.	.	.	.	.
=22	=22	=22	=22	=22	=22	=22	=22
8e]	_	2Bmm	.	voice	.	55.821	B:min7
8f#	my	.	.	.	.	.	.
8d	_	.	.	.	.	.	.
8d	life	.	.	.	C	.	.
8r	.	2EMm	.	voice	.	57.144	E:7
16d	for	.	.	.	.	.	.
16e	_	.	.	.	.	.	.
8f#	all	.	.	.	.	.	.
8f#	time	.	.	.	C	.	.
=23	=23	=23	=23	=23	=23	=23	=23
16e	_	1AM	.	voice	.	58.467	A:sus4(b7,9)
[8.d	_	.	.	.	.	.	.
4d_	_	.	.	.	.	.	.
8.d]	_	.	.	.	.	.	.
16r	.	.	.	.	.	.	.
4r	.	.	.	.	.	.	.
=24	=24	=24	=24	=24	=24	=24	=24
8Aq	_	.	.	.	.	.	.
4B	I'm	2..AM	.	voice	.	61.114	A:sus4(b7,9)
8c#	_	.	.	.	.	.	.
[8d	_	.	.	.	.	.	.
8d]	_	.	.	.	.	.	.
8e	_	.	.	.	.	.	.
8f#	_	.	.	.	.	.	.
[8a	_	8Bmm	.	voice	.	.	B:min7
=25	=25	=25	=25	=25	=25	=25	=25
*>Letter>D	*>Letter>D	*>Letter>D	*>Letter>D	*>Letter>D	*>Letter>D	*>Letter>D	*>Letter>D
*>Label>Chorus	*>Label>Chorus	*>Label>Chorus	*>Label>Chorus	*>Label>Chorus	*>Label>Chorus	*>Label>Chorus	*>Label>Chorus
*b:	*	*b:	*	*	*	*	*b:
2a_	_	1Bmm	newline	voice	.	63.761	B:min7
8a]	_	.	.	.	.	.	.
8f#	_	.	.	.	.	.	.
4r	.	.	.	.	.	.	.
=26	=26	=26	=26	=26	=26	=26	=26
8gq	_	.	.	.	.	.	.
8a	caught	1Bmm	.	voice	.	66.385	B:min7
8a	up	.	.	.	.	.	.
32a	in	.	.	.	.	.	.
16.f#	_	.	.	.	.	.	.
32f#	the	.	.	.	.	.	.
16.e	_	.	.	.	.	.	.
8e	rap-	.	.	.	D	.	.
8c#	-ture	.	.	.	.	.	.
8c#	of	.	.	.	.	.	.
32d	love	.	.	.	.	.	.
[16.B	_	.	.	.	.	.	.
=27	=27	=27	=27	=27	=27	=27	=27
2B_	_	1GMM	.	voice	.	69.009	G:maj7
8~Gq	_	.	.	.	.	.	.
8B]	_	.	.	.	.	.	.
8r	.	.	.	.	.	.	.
4r	.	.	.	.	.	.	.
=28	=28	=28	=28	=28	=28	=28	=28
8Aq	_	.	.	.	.	.	.
4B	No-	2Emm	.	voice	.	71.633	E:min7
8c#	-thing	.	.	.	.	.	.
[8d	else	.	.	.	.	.	.
8d]	_	2F#Am	.	voice	.	72.945	F#:aug(b7)
8e	can	.	.	.	.	.	.
8f#	com	.	.	.	.	.	.
8eq	_	.	.	.	.	.	.
8f#	pare	.	.	.	.	.	.
=29	=29	=29	=29	=29	=29	=29	=29
2.e	_	1Bmm	newline	voice	.	74.257	B:min7
4r	.	.	.	.	.	.	.
=30	=30	=30	=30	=30	=30	=30	=30
8gq	_	.	.	.	.	.	.
8a	When	1Bmm	.	voice	.	76.887	B:min7
8a	I	.	.	.	.	.	.
32a	feel	.	.	.	.	.	.
16.f#	_	.	.	.	.	.	.
32f#	the	.	.	.	.	.	.
16.e	_	.	.	.	.	.	.
8e	ma-	.	.	.	D	.	.
8c#	-gic	.	.	.	.	.	.
8c#	in	.	.	.	.	.	.
32d	you!	.	.	.	.	.	.
[16.B	_	.	.	.	.	.	.
=31	=31	=31	=31	=31	=31	=31	=31
2B_	_	1GMM	.	voice	.	79.517	G:maj7
8B]	_	.	.	.	.	.	.
8r	.	.	.	.	.	.	.
4r	.	.	.	.	.	.	.
=32	=32	=32	=32	=32	=32	=32	=32
8Aq	_	.	.	.	.	.	.
4B	_	4.Emm	.	voice	.	82.147	E:min7
8c#	_	.	.	.	.	.	.
8c#q	_	.	.	.	.	.	.
[8d	_	2AM	.	voice	.	83.462	A:sus4(b7)
8d]	_	.	.	.	.	.	.
8e	_	.	.	.	.	.	.
8f#	_	.	.	.	.	.	.
[8a	_	8DMM	.	voice	.	.	D:maj9
=33	=33	=33	=33	=33	=33	=33	=33
*>Letter>A	*>Letter>A	*>Letter>A	*>Letter>A	*>Letter>A	*>Letter>A	*>Letter>A	*>Letter>A
*>Label>Interlude	*>Label>Interlude	*>Label>Interlude	*>Label>Interlude	*>Label>Interlude	*>Label>Interlude	*>Label>Interlude	*>Label>Interlude
*D:	*	*D:	*	*	*	*	*D:
2a_	_	1DMM	newline	voice	.	84.777	D:maj9
8a]	_	.	.	.	.	.	.
8r	.	.	.	.	.	.	.
8r	.	.	.	.	.	.	.
16a	Ba	.	.	.	.	.	.
16b-	ba	.	.	.	.	.	.
=34	=34	=34	=34	=34	=34	=34	=34
8cc	ba	4.FM	.	voice	.	87.4	F:maj/2
8b-	ya	.	.	.	.	.	.
8a	ba	.	.	.	.	.	.
[8g	bum	2Amm	.	voice	.	88.712	A:min7
8g]	_	.	.	.	.	.	.
4e	bum	.	.	.	.	.	.
[8f	ba	8CM	.	voice	.	.	C:sus4(b7,9,13)
=35	=35	=35	=35	=35	=35	=35	=35
4f]	_	1CM	.	voice	.	90.024	C:sus4(b7,9,13)
4r	.	.	.	.	.	.	.
4r	.	.	.	.	.	.	.
8r	.	.	.	.	.	.	.
24e	huh	.	.	.	.	.	.
24f	huh	.	.	.	.	.	.
24e	ya	.	.	.	.	.	.
=36	=36	=36	=36	=36	=36	=36	=36
4.d	bum	4.Gmm	.	voice	.	92.648	G:min7
[8A	bum,	2AM	.	voice	.	93.96	A:sus4(b7)
8A]	_	.	.	.	.	.	.
4a	we	.	.	.	.	.	.
[8a	stand	8DMM	.	voice	.	.	D:maj7
=37	=37	=37	=37	=37	=37	=37	=37
*>Letter>B	*>Letter>B	*>Letter>B	*>Letter>B	*>Letter>B	*>Letter>B	*>Letter>B	*>Letter>B
*>Label>Verse	*>Label>Verse	*>Label>Verse	*>Label>Verse	*>Label>Verse	*>Label>Verse	*>Label>Verse	*>Label>Verse
8a]	_	1DMM	newline	voice	.	95.271	D:maj7
8f#	_	.	.	.	.	.	.
4r	.	.	.	.	.	.	.
8r	.	.	.	.	.	.	.
8a	side	.	.	.	C	.	.
8g	_	.	.	.	.	.	.
8g	by	.	.	.	.	.	.
=38	=38	=38	=38	=38	=38	=38	=38
8f#	_	1F#mm	.	voice	.	97.9	F#:min7
8f#	side	.	.	.	C	.	.
4r	.	.	.	.	.	.	.
8r	.	.	.	.	.	.	.
8d	'till	.	.	.	.	.	.
8e	the	.	.	.	.	.	.
16e	storms	.	.	.	.	.	.
[16f#	_	.	.	.	.	.	.
=39	=39	=39	=39	=39	=39	=39	=39
4f#]	_	1GMM	.	voice	.	100.528	G:maj7
8g	of	.	.	.	.	.	.
[8e	life	.	.	.	C	.	.
8e]	_	.	.	.	.	.	.
8d	pass	.	.	.	.	.	.
8~f	us	.	.	.	.	.	.
8dq	_	.	.	.	.	.	.
8e	by	.	.	.	C	.	.
=40	=40	=40	=40	=40	=40	=40	=40
4e	_	1CM	.	voice	.	103.156	C:sus4(b7,9,13)
4r	.	.	.	.	.	.	.
8r	.	.	.	.	.	.	.
8d	Light	.	.	.	C	.	.
8e	my	.	.	.	.	.	.
8eq	_	.	.	.	.	.	.
8f#	life	.	.	.	.	.	.
=41	=41	=41	=41	=41	=41	=41	=41
8e	_	1DMM	newline	voice	.	105.784	D:maj7
8r	.	.	.	.	.	.	.
4r	.	.	.	.	.	.	.
8r	.	.	.	.	.	.	.
8a	Warm	.	.	.	.	.	.
8g	_	.	.	.	.	.	.
8g	my	.	.	.	.	.	.
=42	=42	=42	=42	=42	=42	=42	=42
8f#	_	1F#mm	.	voice	.	108.409	F#:min7
8f#	heart	.	.	.	E	.	.
16e	_	.	.	.	.	.	.
8.d	_	.	.	.	.	.	.
8r	.	.	.	.	.	.	.
8d	Say	.	.	.	.	.	.
8e	to	.	.	.	.	.	.
8eq	_	.	.	.	.	.	.
[8f#	night	.	.	.	.	.	.
=43	=43	=43	=43	=43	=43	=43	=43
4f#]	_	1GMM	.	voice	.	111.035	G:maj7
32g	will	.	.	.	.	.	.
16.e	_	.	.	.	.	.	.
[8e	be	.	.	.	.	.	.
8e]	_	.	.	.	.	.	.
8d	just	.	.	.	.	.	.
8~d	the	.	.	.	.	.	.
8dq	_	.	.	.	.	.	.
[8e	start!	.	.	.	E	.	.
=44	=44	=44	=44	=44	=44	=44	=44
4e]	_	1CM	.	voice	.	113.66	C:sus4(b7,9,13)
4r	.	.	.	.	.	.	.
2r	.	.	.	.	.	.	.
=45	=45	=45	=45	=45	=45	=45	=45
*>Letter>C	*>Letter>C	*>Letter>C	*>Letter>C	*>Letter>C	*>Letter>C	*>Letter>C	*>Letter>C
*>Label>Prechorus	*>Label>Prechorus	*>Label>Prechorus	*>Label>Prechorus	*>Label>Prechorus	*>Label>Prechorus	*>Label>Prechorus	*>Label>Prechorus
4r	.	2C#m	newline	voice	.	116.286	C#:1(b3,b7,11,9)
8f#	I	.	.	.	.	.	.
8e	_	.	.	.	.	.	.
32e	love	2F#Mm	.	voice	.	117.597	F#:7
16.d	_	.	.	.	.	.	.
[8d	you	.	.	.	.	.	.
8d]	_	.	.	.	.	.	.
[8e	here	.	.	.	.	.	.
=46	=46	=46	=46	=46	=46	=46	=46
8e]	_	2Bmm	.	voice	.	118.909	B:min7
8f#	by	.	.	.	.	.	.
8e	_	.	.	.	.	.	.
16e	me,	.	.	.	B	.	.
[16d	_	.	.	.	.	.	.
4d]	_	2EMm	.	voice	.	120.221	E:7
8dq	_	.	.	.	.	.	.
8e	ba-	.	.	.	.	.	.
8eq	_	.	.	.	.	.	.
8f#	-by	.	.	.	B	.	.
=47	=47	=47	=47	=47	=47	=47	=47
4r	.	2Am	.	voice	.	121.533	A:min
8f#	you	.	.	.	.	.	.
8e	_	.	.	.	.	.	.
8e	let	2DMm	.	voice	.	122.845	D:7
4d	my	.	.	.	.	.	.
[8a	love	.	.	.	.	.	.
=48	=48	=48	=48	=48	=48	=48	=48
8a]	_	2GMM	.	voice	.	124.157	G:maj7
8eq	_	.	.	.	.	.	.
8f	fly	.	.	.	.	.	.
8e	_	.	.	.	.	.	.
16e	free	.	.	.	B	.	.
[16d	_	.	.	.	.	.	.
8d]	_	2CMm	.	voice	.	125.469	C:13
16e	ly	.	.	.	B	.	.
16f#	_	.	.	.	.	.	.
8e	_	.	.	.	.	.	.
8r	.	.	.	.	.	.	.
=49	=49	=49	=49	=49	=49	=49	=49
4r	.	2C#m	newline	voice	.	126.781	C#:1(b3,b7,11,9)
8f#	I	.	.	.	.	.	.
8e	_	.	.	.	.	.	.
8e	want	2F#Mm	.	voice	.	128.099	F#:7
4d	you	.	.	.	.	.	.
[8e	in	.	.	.	.	.	.
=50	=50	=50	=50	=50	=50	=50	=50
8e]	_	2Bmm	.	voice	.	129.416	B:min7
8f#	my	.	.	.	.	.	.
8d	_	.	.	.	.	.	.
8d	life	.	.	.	C	.	.
8r	.	2EMm	.	voice	.	130.734	E:7
8dq	_	.	.	.	.	.	.
8e	for	.	.	.	.	.	.
8f#	all	.	.	.	.	.	.
8f#	time	.	.	.	C	.	.
=51	=51	=51	=51	=51	=51	=51	=51
16e	_	1AM	.	voice	.	132.052	A:sus4(b7,9)
[8.d	_	.	.	.	.	.	.
4d_	_	.	.	.	.	.	.
8.d]	_	.	.	.	.	.	.
16r	.	.	.	.	.	.	.
4r	.	.	.	.	.	.	.
=52	=52	=52	=52	=52	=52	=52	=52
8Aq	_	.	.	.	.	.	.
4B	I'm	2..AM	.	voice	.	134.688	A:sus4(b7,9)
8c#	_	.	.	.	.	.	.
[8d	_	.	.	.	.	.	.
8d]	_	.	.	.	.	.	.
8e	_	.	.	.	.	.	.
8f#	_	.	.	.	.	.	.
[8a	_	8Bmm	.	.	.	.	B:min7
=53	=53	=53	=53	=53	=53	=53	=53
*>Letter>D2	*>Letter>D2	*>Letter>D2	*>Letter>D2	*>Letter>D2	*>Letter>D2	*>Letter>D2	*>Letter>D2
*>Label>Chorus	*>Label>Chorus	*>Label>Chorus	*>Label>Chorus	*>Label>Chorus	*>Label>Chorus	*>Label>Chorus	*>Label>Chorus
*b:	*	*b:	*	*	*	*	*b:
2a_	_	1Bmm	newline	voice	.	137.323	B:min7
8a]	_	.	.	.	.	.	.
8~f#	_	.	.	.	.	.	.
4r	.	.	.	.	.	.	.
=54	=54	=54	=54	=54	=54	=54	=54
8gq	_	.	.	.	.	.	.
8a	caught	1Bmm	.	voice	.	139.953	B:min7
8a	up	.	.	.	.	.	.
32a	in	.	.	.	.	.	.
16.f#	_	.	.	.	.	.	.
32f#	the	.	.	.	.	.	.
16.e	_	.	.	.	.	.	.
32e	rap-	.	.	.	D	.	.
16.c#	_	.	.	.	.	.	.
8c#	-ture	.	.	.	.	.	.
8c#	of	.	.	.	.	.	.
32d	love	.	.	.	.	.	.
[16.B	_	.	.	.	.	.	.
=55	=55	=55	=55	=55	=55	=55	=55
2B_	_	1GMM	.	voice	.	142.583	G:maj7
8~Gq	_	.	.	.	.	.	.
8B]	_	.	.	.	.	.	.
8r	.	.	.	.	.	.	.
4r	.	.	.	.	.	.	.
=56	=56	=56	=56	=56	=56	=56	=56
8Aq	_	.	.	.	.	.	.
4B	No-	2Emm	.	voice	.	145.213	E:min7
8c#	-thing	.	.	.	.	.	.
[8d	else	.	.	.	.	.	.
8d]	_	2F#Am	.	voice	.	146.528	F#:aug(b7)
8e	can	.	.	.	.	.	.
8f#	com	.	.	.	.	.	.
8eq	_	.	.	.	.	.	.
8f#	pare	.	.	.	.	.	.
=57	=57	=57	=57	=57	=57	=57	=57
2.e	_	1Bmm	newline	voice	.	147.843	B:min7
4r	.	.	.	.	.	.	.
=58	=58	=58	=58	=58	=58	=58	=58
8gq	_	.	.	.	.	.	.
8a	When	1Bmm	.	voice	.	150.485	B:min7
8a	I	.	.	.	.	.	.
32a	feel	.	.	.	.	.	.
16.f#	_	.	.	.	.	.	.
32f#	the	.	.	.	.	.	.
16.e	_	.	.	.	.	.	.
32e	ma-	.	.	.	D	.	.
16.c#	_	.	.	.	.	.	.
8c#	-gic	.	.	.	.	.	.
8c#q	_	.	.	.	.	.	.
8d	in	.	.	.	.	.	.
32d	you	.	.	.	A	.	.
[16.B	_	.	.	.	.	.	.
=59	=59	=59	=59	=59	=59	=59	=59
2B_	_	1GMM	.	voice	.	153.127	G:maj7
8B]	_	.	.	.	.	.	.
8r	.	.	.	.	.	.	.
8r	.	.	.	.	.	.	.
8A	The	.	.	.	.	.	.
=60	=60	=60	=60	=60	=60	=60	=60
4B	fee-	2Emm	.	voice	.	155.769	E:min7
8c#	-ling's	.	.	.	.	.	.
8c#q	_	.	.	.	.	.	.
[8d	al	.	.	.	.	.	.
8d]	_	2F#Am	.	voice	.	157.09	F#:aug(b7)
8e	ways	.	.	.	.	.	.
8eq	_	.	.	.	.	.	.
8f#	_	.	.	.	.	.	.
[8a	new	.	.	.	A	.	.
=61	=61	=61	=61	=61	=61	=61	=61
2a_	_	1Bmm	newline	voice	.	158.411	B:min7
4a]	_	.	.	.	.	.	.
8~f#	wa	.	.	.	.	.	.
8r	.	.	.	.	.	.	.
=62	=62	=62	=62	=62	=62	=62	=62
8gq	_	.	.	.	.	.	.
8a	Caught	1Bmm	.	voice	.	161.025	B:min7
8a	up	.	.	.	.	.	.
32a	in	.	.	.	.	.	.
16.f#	_	.	.	.	.	.	.
32f#	the	.	.	.	.	.	.
16.e	_	.	.	.	.	.	.
32e	rap	.	.	.	D	.	.
16.c#	_	.	.	.	.	.	.
8c#	ture	.	.	.	.	.	.
8c#	of	.	.	.	.	.	.
32d	you	.	.	.	A	.	.
[16.B	_	.	.	.	.	.	.
=63	=63	=63	=63	=63	=63	=63	=63
2B_	_	1GMM	.	voice	.	163.639	G:maj7
8B]	_	.	.	.	.	.	.
8r	.	.	.	.	.	.	.
4r	.	.	.	.	.	.	.
=64	=64	=64	=64	=64	=64	=64	=64
8Aq	_	.	.	.	.	.	.
4B	I'm	2Emm	.	voice	.	166.254	E:min7
8c#	_	.	.	.	.	.	.
[8d	_	.	.	.	.	.	.
8d]	_	2AM	.	voice	.	167.561	A:sus4(b7)
8e	_	.	.	.	.	.	.
8f#	_	.	.	.	.	.	.
[8a	_	.	.	.	.	.	.
=65	=65	=65	=65	=65	=65	=65	=65
*>Letter>A2	*>Letter>A2	*>Letter>A2	*>Letter>A2	*>Letter>A2	*>Letter>A2	*>Letter>A2	*>Letter>A2
*>Label>Interlude	*>Label>Interlude	*>Label>Interlude	*>Label>Interlude	*>Label>Interlude	*>Label>Interlude	*>Label>Interlude	*>Label>Interlude
*D:	*	*D:	*	*	*	*	*D:
2a_	_	1DMM	newline	voice	.	168.868	D:maj9
8.a]	_	.	.	.	.	.	.
16r	.	.	.	.	.	.	.
4r	.	.	.	.	.	.	.
=66	=66	=66	=66	=66	=66	=66	=66
1r	.	4.FM	.	voice	.	171.489	F:maj/2
.	.	2Amm	.	voice	.	172.799	A:min7
.	.	8CM	.	voice	.	.	C:sus4(b7,9,13)
=67	=67	=67	=67	=67	=67	=67	=67
1r	.	1CM	.	voice	.	174.109	C:sus4(b7,9,13)
=68	=68	=68	=68	=68	=68	=68	=68
1r	.	4.Gmm	.	voice	.	176.73	G:min7
.	.	2AM	.	voice	.	178.041	A:sus4(b7)
.	.	8DMM	.	voice	.	.	D:maj9
=69	=69	=69	=69	=69	=69	=69	=69
1r	.	1DMM	newline	voice	.	179.351	D:maj9
=70	=70	=70	=70	=70	=70	=70	=70
1r	.	4.FM	.	voice	.	181.989	F:maj/2
.	.	2Amm	.	voice	.	183.307	A:min7
.	.	8CM	.	voice	.	.	C:sus4(b7,9,13)
=71	=71	=71	=71	=71	=71	=71	=71
1r	.	1CM	.	voice	.	184.626	C:sus4(b7,9,13)
=72	=72	=72	=72	=72	=72	=72	=72
1r	.	4.Gmm	.	voice	.	187.264	G:min7
.	.	8%5AM	.	voice	.	188.583	A:sus4(b7)
=73	=73	=73	=73	=73	=73	=73	=73
*>Letter>C	*>Letter>C	*>Letter>C	*>Letter>C	*>Letter>C	*>Letter>C	*>Letter>C	*>Letter>C
*>Label>Prechorus	*>Label>Prechorus	*>Label>Prechorus	*>Label>Prechorus	*>Label>Prechorus	*>Label>Prechorus	*>Label>Prechorus	*>Label>Prechorus
4r	.	2C#m	newline	voice	.	189.902	C#:1(b3,b7,11,9)
4f#	I	.	.	.	.	.	.
8a	love	2F#Mm	.	voice	.	191.217	F#:7
8aq	_	.	.	.	.	.	.
[8b	you	.	.	.	.	.	.
8b]	_	.	.	.	.	.	.
[8cc#	here	.	.	.	.	.	.
=74	=74	=74	=74	=74	=74	=74	=74
8cc#]	_	2Bmm	.	voice	.	192.533	B:min7
8cc#q	_	.	.	.	.	.	.
8dd	by	.	.	.	.	.	.
8b	_	.	.	.	.	.	.
[8b	me	.	.	.	B	.	.
8b]	_	2EMm	.	voice	.	193.849	E:7
16a	_	.	.	.	.	.	.
16f#	_	.	.	.	.	.	.
8eq	_	.	.	.	.	.	.
8f#	ba-	.	.	.	.	.	.
16e	-by	.	.	.	B	.	.
16d	_	.	.	.	.	.	.
=75	=75	=75	=75	=75	=75	=75	=75
4r	.	2Am	.	voice	.	195.164	A:min
8f#	you	.	.	.	.	.	.
8e	_	.	.	.	.	.	.
8e	let	2DMm	.	voice	.	196.48	D:7
4d	my	.	.	.	.	.	.
[8a	love	.	.	.	.	.	.
=76	=76	=76	=76	=76	=76	=76	=76
8a]	_	2GMM	.	voice	.	197.796	G:maj7
8eq	_	.	.	.	.	.	.
8f#	fly	.	.	.	.	.	.
8e	_	.	.	.	.	.	.
16e	free	.	.	.	(B	.	.
[16d	_	.	.	.	.	.	.
8d]	_	2CMm	.	voice	.	199.111	C:13
16e	ly	.	.	.	B)	.	.
16f#	_	.	.	.	.	.	.
4e	_	.	.	.	.	.	.
=77	=77	=77	=77	=77	=77	=77	=77
4r	.	2C#m	newline	voice	.	200.427	C#:1(b3,b7,11,9)
8f#	I	.	.	.	.	.	.
8e	_	.	.	.	.	.	.
8e	want	2F#Mm	.	voice	.	201.737	F#:7
4d	you	.	.	.	.	.	.
[8e	in	.	.	.	.	.	.
=78	=78	=78	=78	=78	=78	=78	=78
8e]	_	2Bmm	.	voice	.	203.047	B:min7
8f#	my	.	.	.	.	.	.
8d	_	.	.	.	.	.	.
8d	life	.	.	.	C	.	.
8r	.	2EMm	.	voice	.	204.357	E:7
8dq	_	.	.	.	.	.	.
8e	for	.	.	.	.	.	.
8f#	all	.	.	.	.	.	.
8f#q	_	.	.	.	.	.	.
[8a	time	.	.	.	C	.	.
=79	=79	=79	=79	=79	=79	=79	=79
2a_	_	1AM	.	voice	.	205.667	A:sus4(b7,9)
8a]	_	.	.	.	.	.	.
8r	.	.	.	.	.	.	.
4r	.	.	.	.	.	.	.
=80	=80	=80	=80	=80	=80	=80	=80
8Aq	_	.	.	.	.	.	.
4B	I'm	2..AM	.	voice	.	208.287	A:sus4(b7,9)
8c#	_	.	.	.	.	.	.
[8d	_	.	.	.	.	.	.
8d]	_	.	.	.	.	.	.
8e	_	.	.	.	.	.	.
8f#	_	.	.	.	.	.	.
[8a	_	8Bmm	.	voice	.	.	B:min7
=81	=81	=81	=81	=81	=81	=81	=81
*>Letter>D	*>Letter>D	*>Letter>D	*>Letter>D	*>Letter>D	*>Letter>D	*>Letter>D	*>Letter>D
*>Label>Solo	*>Label>Solo	*>Label>Solo	*>Label>Solo	*>Label>Solo	*>Label>Solo	*>Label>Solo	*>Label>Solo
*b:	*	*b:	*	*	*	*	*b:
2a_	_	1Bmm	newline	voice	.	210.907	B:min7
8a]	_	.	.	.	.	.	.
8~f#	_	.	.	.	.	.	.
4r	.	.	.	.	.	.	.
=82	=82	=82	=82	=82	=82	=82	=82
8gq	_	.	.	.	.	.	.
8a	caught	1Bmm	.	voice	.	213.543	B:min7
8a	up	.	.	.	.	.	.
32a	in	.	.	.	.	.	.
16.f#	_	.	.	.	.	.	.
32f#	the	.	.	.	.	.	.
16.e	_	.	.	.	.	.	.
32e	rap-	.	.	.	D	.	.
16.c#	_	.	.	.	.	.	.
8c#	-ture	.	.	.	.	.	.
8c#	of	.	.	.	.	.	.
32d	love	.	.	.	.	.	.
[16.B	_	.	.	.	.	.	.
=83	=83	=83	=83	=83	=83	=83	=83
2B_	_	1GMM	.	voice	.	216.179	G:maj7
8B]	_	.	.	.	.	.	.
8r	.	.	.	.	.	.	.
4r	.	.	.	.	.	.	.
=84	=84	=84	=84	=84	=84	=84	=84
8Aq	_	.	.	.	.	.	.
4B	_	2Emm	.	voice	.	218.815	E:min7
8c#	_	.	.	.	.	.	.
[8d	_	.	.	.	.	.	.
8d]	_	2F#Am	.	voice	.	220.133	F#:aug(b7)
8e	_	.	.	.	.	.	.
8f#	_	.	.	.	.	.	.
8eq	_	.	.	.	.	.	.
8f#	_	.	.	.	.	.	.
=85	=85	=85	=85	=85	=85	=85	=85
2.e	_	1Bmm	newline	voice	.	221.451	B:min7
4r	.	.	.	.	.	.	.
=86	=86	=86	=86	=86	=86	=86	=86
1r	.	1Bmm	.	voice	.	224.074	B:min7
=87	=87	=87	=87	=87	=87	=87	=87
1r	.	1GMM	.	voice	.	226.697	G:maj7
=88	=88	=88	=88	=88	=88	=88	=88
1r	.	2Emm	.	voice	.	229.321	E:min7
.	.	2F#Am	.	voice	.	230.632	F#:aug(b7)
=89	=89	=89	=89	=89	=89	=89	=89
1r	.	1Bmm	newline	voice	.	231.944	B:min7
=90	=90	=90	=90	=90	=90	=90	=90
1r	.	1Bmm	.	voice	.	234.586	B:min7
=91	=91	=91	=91	=91	=91	=91	=91
1r	.	1GMM	.	voice	.	237.227	G:maj7
=92	=92	=92	=92	=92	=92	=92	=92
1r	.	2Emm	.	voice	.	239.869	E:min7
.	.	2F#Am	.	voice	.	241.19	F#:aug(b7)
=93	=93	=93	=93	=93	=93	=93	=93
1r	.	1Bmm	newline	voice	.	242.511	B:min7
=94	=94	=94	=94	=94	=94	=94	=94
1r	.	1Bmm	.	voice	.	245.146	B:min7
=95	=95	=95	=95	=95	=95	=95	=95
1r	.	1GMM	.	voice	.	247.781	G:maj7
=96	=96	=96	=96	=96	=96	=96	=96
1r	.	2Emm	.	voice	.	250.416	E:min7
.	.	2F#Am	.	voice	.	251.734	F#:aug(b7)
r;	.	1r;	.	r	.	NA	N.C.
*-	*-	*-	*-	*-	*-	*-	*-
!!!BillboardChartDate: 1987/03/21, 1987/02/28
!!!BillboardPeak: 37, 37
!!!BillboardWeeksOnChart: 18, 18
!!!COC: Anita Baker
!!!ENC: Nathaniel Condit-Schultz
!!!EST: Awating manual error checking and editing.
!!!OTL: Caught Up In The Rapture
!!!RDF**chordsym: original McGill chord annotation + (implied pitch class set, with bass pitch in first position)
!!!RDF**harmony: **recip + pitch class of root + harmonic quality
!!!RDF**leadinstrument: original McGill primary instrumentation annotation
!!!RDF**phrase: newline = linebreak in original McGill transcription
!!!RDF**timestamp: McGill audio timestamp in seconds
!!!RDT: 2017/01/12/
!!!SampleActualRank: 85, 56
!!!SampleID#: 647, 709
!!!SampleTargetRank: 85, 56
